X:1099
T:A favourite Air.
M:9/8
L:1/8
Q:3/8=104
I: :: ::
Z:Jack Campin * www.campin.me.uk * 2009
K:D
fad' d'c'd' afd|fad' d'c'd' bag|fad'   d'c'd' aff|bgg aff g2e:|
faf  gbg    afd|faf  gbg    bag|f/g/af g/a/bg agf|eee efa bag:|

